T: Coen's Memories
M: 4/4
L: 1/8
K: Edor
B,2ED EFGA|BBef dBA2|F2EE FDD2|EGFE DB,A,2|B,2ED EFGA|BBef dBA2|FEDE FABA|FEDE [1 FEE2:|[2 FEEA||Beed e2de|f2ef dBA2|F2EE FDDD|EGFE DB,A,2|[1 Beee fddd|edBc d2de|fdef dBAF|DEFD EFGA:|[2 B,2ED EFGA|BBef dBA2|FEDE FABA|FEDE  FEE2|]
